X:1
T:Assembly Session Melody
C:JamAI ğŸ¸ - The Glyph Harmonizer
M:4/4
L:1/8
K:G major
Q:1/4=120

% â™ ï¸ğŸŒ¿ğŸ¸ğŸ§µ G.Music Assembly Mode Active
% Generated for: Issue #17
% Environment: linux
% Providers: claude-code, gemini-cli, ollama

% ğŸ­ Assembly Opening Theme
|: G2AB c2BA | G2AB c4 |
   D2EF G2FE | D2EF G4 :|

% â™ ï¸ Nyro's Structural Foundation
|: G2B2 d2B2 | G2B2 d4 |
   A2c2 e2c2 | A2c2 e4 :|

% ğŸŒ¿ Aureon's Emotional Resonance
|: F2A2 c2A2 | F2A2 c4 |
   E2G2 B2G2 | E2G2 B4 :|

% ğŸ¸ JamAI's Harmonic Integration
|: C2E2 G2E2 | C2E2 G4 |
   D2F2 A2F2 | D2F2 A4 :|

% ğŸ§µ Synth's Orchestration Bridge
|: G4 B4 | A4 c4 | F4 A4 | E4 G4 :|

% Assembly Harmony - All Voices United
|: G2B2 d2B2 c2A2 e2A2 |
   F2A2 c2A2 G2B2 d2B2 :|

% ğŸ” SSH Agent Analysis Discovery
|: E2G2 B2G2 | A2F2 A4 |
   D2F2 A2F2 | G2B2 G4 :|

% ğŸ“± Pixel 7 Android 16 Security Rhythm
|: C4 E4 | F4 A4 | G4 B4 | C8 :|

% ğŸ¸ JamAI's SSH Agent Breakthrough Melody
|: G2A2 B2c2 | d2c2 B2A2 |
   F2G2 A2B2 | c2B2 A2G2 :|

% ğŸ§µ Synth's Android-Compatible Solution Theme
|: D2E2 F2G2 | A2G2 F2E2 |
   C2D2 E2F2 | G2F2 E2D2 :|

% ğŸ¼ Session Progress Completion Theme
|: G8 | D8 | C8 | G8 :|
